web/public/images/3p-logos/jest.svg

<svg width="54" height="48" viewBox="0 0 54 48" fill="none" xmlns="http://www.w3.org/2000/svg">
<path d="M45.631 23.5692C45.631 21.1084 43.6362 19.1135 41.1752 19.1135C41.017 19.1135 40.8608 19.122 40.707 19.1381L46.8269 1.08813H20.8193L26.9307 19.1224C26.841 19.117 26.7509 19.1135 26.6599 19.1135C24.1991 19.1135 22.2042 21.1084 22.2042 23.5692C22.2042 25.5584 23.5078 27.2423 25.3069 27.8152C24.3567 29.4613 23.1609 30.9438 21.8034 32.2247C19.9574 33.9661 17.8447 35.2866 15.5596 36.1004C12.8392 34.7028 11.5544 31.5947 12.7137 28.8694C12.8445 28.5617 12.9782 28.2498 13.1059 27.9392C15.0769 27.4792 16.5455 25.7123 16.5455 23.6012C16.5455 21.1403 14.5506 19.1455 12.0897 19.1455C9.62888 19.1455 7.63393 21.1403 7.63393 23.6012C7.63393 25.1102 8.38481 26.4431 9.53246 27.2491C8.42965 29.7601 6.80851 32.388 6.30346 35.4337C5.69818 39.0839 6.3015 42.9584 9.45846 45.1465C16.8108 50.2423 24.7917 41.9875 33.2064 39.9125C36.2561 39.1604 39.6036 39.2816 42.2905 37.7254C44.3081 36.5568 45.6383 34.6202 46.0158 32.4459C46.3887 30.2979 45.8451 28.1593 44.5947 26.4252C45.2414 25.6518 45.631 24.6562 45.631 23.5692Z" fill="#99425B"/>
<path d="M44.9435 32.2597C44.6157 34.1473 43.4499 35.7962 41.7448 36.7838C40.1555 37.7043 38.2509 37.9791 36.2344 38.2699C35.1541 38.4256 34.037 38.5868 32.9457 38.8559C30.0603 39.5674 27.2655 40.9556 24.5627 42.2981C19.1539 44.9847 14.4828 47.3046 10.0782 44.2521C6.85195 42.016 7.00093 37.8789 7.37681 35.6118C7.72515 33.5114 8.66691 31.577 9.57765 29.7063C9.73501 29.3828 9.88921 29.0654 10.0393 28.7507C10.4907 28.931 10.9708 29.0541 11.4713 29.11C10.5442 32.1696 12.0021 35.4963 15.0622 37.0684L15.481 37.2835L15.9246 37.1256C18.3437 36.2641 20.5728 34.8816 22.55 33.0161C23.8281 31.8104 24.927 30.4764 25.8301 29.051C26.1008 29.0918 26.3778 29.1133 26.6598 29.1133C29.4683 29.1133 31.794 27.0136 32.1539 24.3019C33.3035 24.2598 34.5246 24.2594 35.6809 24.3014C36.0405 27.0134 38.3664 29.1133 41.175 29.1133C42.3494 29.1133 43.4387 28.7452 44.336 28.12C44.959 29.3953 45.1916 30.8303 44.9435 32.2597ZM12.0895 20.2337C13.9465 20.2337 15.457 21.7444 15.457 23.6013C15.457 24.2682 15.2614 24.8902 14.9253 25.4139C14.3654 26.2869 13.4142 26.8853 12.3209 26.96C12.2444 26.9652 12.1673 26.9688 12.0895 26.9688C11.6758 26.9688 11.2793 26.8933 10.9128 26.7563C10.1714 26.4788 9.5536 25.9468 9.16499 25.2676C8.88368 24.7758 8.72197 24.2072 8.72197 23.6013C8.72197 21.7444 10.2327 20.2337 12.0895 20.2337ZM23.2922 23.5693C23.2922 21.8822 24.5393 20.4813 26.1599 20.2391C26.3231 20.2146 26.49 20.2017 26.6598 20.2017C27.7393 20.2017 28.7004 20.7132 29.3169 21.5057C29.4701 21.7025 29.603 21.9161 29.71 22.1442C29.9131 22.5773 30.0273 23.0601 30.0273 23.5693C30.0273 23.8385 29.9946 24.1002 29.9347 24.3513C29.6065 25.7252 28.435 26.7752 26.9995 26.9197C26.8878 26.9309 26.7745 26.9368 26.6598 26.9368C25.9874 26.9368 25.3611 26.738 24.8347 26.3972C23.9075 25.7966 23.2922 24.7537 23.2922 23.5693ZM37.3471 19.5649C36.6257 20.2552 36.0892 21.1371 35.822 22.1288C34.575 22.082 33.2527 22.082 32.0129 22.1288C31.7281 21.0718 31.1374 20.1393 30.3429 19.4309L33.8274 12.385L37.3471 19.5649ZM22.337 2.17647H45.3086L39.883 18.1785C39.6478 18.235 39.4184 18.306 39.1958 18.3915L33.836 7.45777L28.4611 18.3262C28.2288 18.2462 27.9894 18.1818 27.7443 18.1329L22.337 2.17647ZM44.5426 23.5693C44.5426 23.9069 44.4921 24.2329 44.3993 24.5406C44.1781 25.2728 43.7141 25.9002 43.1013 26.3291C42.555 26.7115 41.891 26.9368 41.175 26.9368C39.6202 26.9368 38.3085 25.8772 37.923 24.4423C37.8481 24.1637 37.8075 23.8711 37.8075 23.5693C37.8075 23.1089 37.9005 22.6701 38.0685 22.2701C38.155 22.064 38.2629 21.8692 38.3869 21.6862C38.9929 20.7918 40.0156 20.2017 41.175 20.2017C41.2814 20.2017 41.3863 20.2073 41.4901 20.217C43.1998 20.3763 44.5426 21.8186 44.5426 23.5693ZM46.719 23.5693C46.719 20.8626 44.7689 18.6043 42.2004 18.1218L48.3446 0H19.3013L25.455 18.1587C22.9755 18.7104 21.1157 20.9261 21.1157 23.5693C21.1157 25.554 22.1647 27.2974 23.7367 28.2771C22.9805 29.4036 22.0838 30.4637 21.0564 31.4331C19.4268 32.9704 17.6114 34.1362 15.6542 34.9033C13.6829 33.665 12.8495 31.3298 13.715 29.2953L13.7828 29.1359C13.8252 29.0363 13.8677 28.9365 13.91 28.8368C16.0753 28.0815 17.6335 26.0206 17.6335 23.6013C17.6335 20.5442 15.1465 18.0573 12.0895 18.0573C9.03255 18.0573 6.54551 20.5442 6.54551 23.6013C6.54551 25.1443 7.17973 26.5416 8.20049 27.5476C8.01549 27.9419 7.8207 28.3429 7.62079 28.7535C6.68752 30.6704 5.62976 32.8431 5.22972 35.2557C4.43521 40.0472 5.71682 43.8774 8.83841 46.041C10.7327 47.3538 12.6563 47.8699 14.5921 47.8699C18.2373 47.8699 21.9245 46.0387 25.5309 44.2473C28.1282 42.9573 30.814 41.6233 33.4669 40.969C34.4539 40.7256 35.4697 40.5791 36.545 40.424C38.6774 40.1164 40.8825 39.7984 42.8357 38.6672C45.0998 37.3558 46.6496 35.156 47.0878 32.6321C47.464 30.4653 47.0113 28.295 45.9071 26.4546C46.4218 25.6135 46.719 24.6255 46.719 23.5693Z" fill="white"/>
</svg>

<svg fill="none" height="48" width="54" xmlns="http://www.w3.org/2000/svg"><path d="M45.631 23.57a4.456 4.456 0 0 0-4.924-4.432l6.12-18.05H20.819l6.112 18.034a4.456 4.456 0 0 0-1.624 8.693 19.463 19.463 0 0 1-3.504 4.41c-1.846 1.741-3.958 3.062-6.243 3.875-2.72-1.397-4.006-4.505-2.846-7.23.13-.308.264-.62.392-.93a4.457 4.457 0 1 0-3.574-.69c-1.102 2.51-2.723 5.138-3.229 8.184-.605 3.65-.001 7.524 3.155 9.713 7.353 5.095 15.334-3.16 23.748-5.234 3.05-.753 6.398-.631 9.084-2.188 2.018-1.168 3.348-3.105 3.726-5.28.373-2.147-.17-4.286-1.421-6.02a4.437 4.437 0 0 0 1.036-2.856z" fill="#99425b"/><path d="M44.944 32.26c-.328 1.887-1.494 3.536-3.2 4.524-1.589.92-3.493 1.195-5.51 1.486-1.08.156-2.197.317-3.288.586-2.886.711-5.68 2.1-8.383 3.442-5.41 2.687-10.08 5.007-14.485 1.954-3.226-2.236-3.077-6.373-2.701-8.64.348-2.1 1.29-4.035 2.2-5.906.158-.323.312-.64.462-.955.452.18.932.303 1.432.359-.927 3.06.531 6.386 3.591 7.958l.419.216.444-.158c2.419-.862 4.648-2.244 6.625-4.11a20.655 20.655 0 0 0 3.28-3.965 5.551 5.551 0 0 0 6.324-4.75 49.32 49.32 0 0 1 3.527 0 5.551 5.551 0 0 0 5.494 4.812 5.511 5.511 0 0 0 3.161-.993 6.765 6.765 0 0 1 .608 4.14zM12.089 20.234a3.371 3.371 0 0 1 3.368 3.367 3.369 3.369 0 0 1-4.544 3.155 3.387 3.387 0 0 1-1.748-1.488 3.346 3.346 0 0 1-.443-1.667 3.371 3.371 0 0 1 3.367-3.367zm11.203 3.335a3.373 3.373 0 0 1 3.368-3.367c1.08 0 2.04.511 2.657 1.304a3.348 3.348 0 0 1 .618 2.846 3.375 3.375 0 0 1-3.275 2.585 3.367 3.367 0 0 1-3.368-3.367zm14.055-4.004a5.55 5.55 0 0 0-1.525 2.564 51.689 51.689 0 0 0-3.81 0 5.556 5.556 0 0 0-1.67-2.698l3.485-7.046zM22.337 2.176h22.972L39.883 18.18a5.495 5.495 0 0 0-.687.213l-5.36-10.934-5.375 10.868a5.513 5.513 0 0 0-.717-.193zM44.543 23.57a3.359 3.359 0 0 1-1.442 2.76 3.348 3.348 0 0 1-1.926.608 3.373 3.373 0 0 1-3.368-3.368 3.347 3.347 0 0 1 .58-1.883 3.365 3.365 0 0 1 3.103-1.469 3.372 3.372 0 0 1 3.053 3.352zm2.176 0a5.552 5.552 0 0 0-4.519-5.447L48.345 0H19.3l6.154 18.159a5.552 5.552 0 0 0-4.34 5.41 5.545 5.545 0 0 0 2.622 4.708 18.586 18.586 0 0 1-2.68 3.156c-1.63 1.537-3.446 2.703-5.403 3.47-1.971-1.238-2.805-3.573-1.939-5.608l.068-.16.127-.298a5.553 5.553 0 0 0 3.723-5.236 5.55 5.55 0 0 0-5.544-5.544 5.55 5.55 0 0 0-5.543 5.544c0 1.543.634 2.94 1.654 3.947-.185.394-.38.795-.58 1.205-.932 1.917-1.99 4.09-2.39 6.503-.795 4.791.487 8.621 3.608 10.785 1.895 1.313 3.818 1.829 5.754 1.829 3.645 0 7.332-1.831 10.939-3.623 2.597-1.29 5.283-2.624 7.936-3.278.987-.243 2.003-.39 3.078-.545 2.132-.308 4.337-.626 6.29-1.757 2.265-1.311 3.815-3.511 4.253-6.035.376-2.167-.077-4.337-1.18-6.177a5.51 5.51 0 0 0 .811-2.886z" fill="#fff"/></svg>
